icon-svg/tap-dial.svg

<svg xmlns="http://www.w3.org/2000/svg" fill="#44739e" viewBox="0 0 24 24"><path d="M9.08 8.82c0 .3-.25.55-.55.55s-.55-.25-.55-.55.25-.55.55-.55.55.24.55.55m-.47 6.22c0 .3-.25.55-.55.55s-.55-.25-.55-.55.25-.55.55-.55.55.24.55.55m.57.13c-.3 0-.55.25-.55.55s.25.55.55.55.55-.25.55-.55-.24-.55-.55-.55m-1.12.63c-.3 0-.55.25-.55.55s.25.55.55.55.55-.25.55-.55c0-.31-.25-.55-.55-.55m7.43.55c0 .3-.25.55-.55.55s-.55-.25-.55-.55.25-.55.55-.55.55.24.55.55m-.55-1.86c-.3 0-.55.25-.55.55s.25.55.55.55.55-.25.55-.55c0-.31-.25-.55-.55-.55m1.31 0c-.3 0-.55.25-.55.55s.25.55.55.55.55-.25.55-.55c-.01-.31-.25-.55-.55-.55m0 1.31c-.3 0-.55.25-.55.55s.25.55.55.55.55-.25.55-.55c-.01-.31-.25-.55-.55-.55m-.05-6.23c0 .3-.25.55-.55.55s-.55-.25-.55-.55.25-.55.55-.55c.31 0 .55.25.55.55m-.55-1.86c-.3 0-.55.25-.55.55s.25.55.55.55.55-.25.55-.55-.24-.55-.55-.55M12 3.76c-4.58 0-8.31 3.73-8.31 8.31s3.73 8.31 8.31 8.31 8.31-3.73 8.31-8.31c0-4.59-3.73-8.31-8.31-8.31m7.33 7.81H12.5V4.74c3.65.25 6.58 3.17 6.83 6.83M11.5 4.74v6.83H4.67c.25-3.66 3.18-6.58 6.83-6.83m-6.83 7.83h6.83v6.83c-3.65-.26-6.58-3.18-6.83-6.83m7.83 6.82v-6.83h6.83c-.25 3.66-3.18 6.58-6.83 6.83M12 1.75c-5.7 0-10.32 4.62-10.32 10.32S6.3 22.38 12 22.38s10.32-4.62 10.32-10.32S17.7 1.75 12 1.75m0 19.63c-5.14 0-9.32-4.18-9.32-9.32S6.86 2.74 12 2.74s9.32 4.18 9.32 9.32-4.18 9.32-9.32 9.32"/></svg>

<?xml version="1.0" encoding="UTF-8"?>
<svg width="24px" fill="#44739e" height="24px" viewBox="0 0 24 24" version="1.1" xmlns="http://www.w3.org/2000/svg" xmlns:xlink="http://www.w3.org/1999/xlink">
            <path d="M9.08,8.82c0,0.3-0.25,0.55-0.55,0.55c-0.3,0-0.55-0.25-0.55-0.55c0-0.3,0.25-0.55,0.55-0.55 C8.83,8.27,9.08,8.51,9.08,8.82z M8.61,15.04c0,0.3-0.25,0.55-0.55,0.55c-0.3,0-0.55-0.25-0.55-0.55c0-0.3,0.25-0.55,0.55-0.55 C8.36,14.49,8.61,14.73,8.61,15.04z M9.18,15.17c-0.3,0-0.55,0.25-0.55,0.55c0,0.3,0.25,0.55,0.55,0.55c0.3,0,0.55-0.25,0.55-0.55 C9.73,15.42,9.49,15.17,9.18,15.17z M8.06,15.8c-0.3,0-0.55,0.25-0.55,0.55c0,0.3,0.25,0.55,0.55,0.55c0.3,0,0.55-0.25,0.55-0.55 C8.61,16.04,8.36,15.8,8.06,15.8z M15.49,16.35c0,0.3-0.25,0.55-0.55,0.55c-0.3,0-0.55-0.25-0.55-0.55c0-0.3,0.25-0.55,0.55-0.55 C15.24,15.8,15.49,16.04,15.49,16.35z M14.94,14.49c-0.3,0-0.55,0.25-0.55,0.55c0,0.3,0.25,0.55,0.55,0.55 c0.3,0,0.55-0.25,0.55-0.55C15.49,14.73,15.24,14.49,14.94,14.49z M16.25,14.49c-0.3,0-0.55,0.25-0.55,0.55 c0,0.3,0.25,0.55,0.55,0.55c0.3,0,0.55-0.25,0.55-0.55C16.79,14.73,16.55,14.49,16.25,14.49z M16.25,15.8 c-0.3,0-0.55,0.25-0.55,0.55c0,0.3,0.25,0.55,0.55,0.55c0.3,0,0.55-0.25,0.55-0.55C16.79,16.04,16.55,15.8,16.25,15.8z M16.2,9.57c0,0.3-0.25,0.55-0.55,0.55c-0.3,0-0.55-0.25-0.55-0.55c0-0.3,0.25-0.55,0.55-0.55 C15.96,9.02,16.2,9.27,16.2,9.57z M15.65,7.71c-0.3,0-0.55,0.25-0.55,0.55c0,0.3,0.25,0.55,0.55,0.55c0.3,0,0.55-0.25,0.55-0.55 C16.2,7.96,15.96,7.71,15.65,7.71z M12,3.76c-4.58,0-8.31,3.73-8.31,8.31c0,4.58,3.73,8.31,8.31,8.31c4.58,0,8.31-3.73,8.31-8.31 C20.31,7.48,16.58,3.76,12,3.76z M19.33,11.57H12.5V4.74C16.15,4.99,19.08,7.91,19.33,11.57z M11.5,4.74v6.83H4.67 C4.92,7.91,7.85,4.99,11.5,4.74z M4.67,12.57h6.83v6.83C7.85,19.14,4.92,16.22,4.67,12.57z M12.5,19.39v-6.83h6.83 C19.08,16.22,16.15,19.14,12.5,19.39z M12,1.75c-5.7,0-10.32,4.62-10.32,10.32S6.3,22.38,12,22.38s10.32-4.62,10.32-10.32S17.7,1.75,12,1.75z M12,21.38c-5.14,0-9.32-4.18-9.32-9.32c0-5.14,4.18-9.32,9.32-9.32s9.32,4.18,9.32,9.32C21.32,17.2,17.14,21.38,12,21.38z"/>

</svg>
